X:037
U: ~ = !turn!
%%topmargin 3cm
T:Cooley's Hornpipe
B: Traditional Irish Fiddle Tunes. Randy Miller and Jack Perron.
Z:Transcribed by Ralph Palmer
S: Sean Ryan
R:Hornpipe
L:1/8
M:C|
K:G
((3def) | gG (3{/A}(GFG) ((3EFG) DC | B,G,B,D GBdB | ((3cdc) Ac ((3BcB) GB | cBAG A2 ((3def) |
gG (3{/A}(GFG) ((3EFG) DC | B,G,B,D GBdB | cBAG Fedc | {Bc}B2G2 G2 ::
[|: (3.d.d.c | BGBd edBd | g2 (3{/a}(gfg) egdB | dg (3{/a}(gfg) dBGB | cBAG Fedc|
BG (3{/A}(GFG) (3{/F}(EDE) cE | (3{/F}(EDE) eE DGBd | gage dcBA | {Bc}B2G2 G2 :|]
